X: 34149
T: Reel Eugène
R: reel
M: 4/4
K: Aminor
|:"Am"A2AB cBA2|"Dm"d2de fdBd|"E#7"e2ef edcd|eaae aecB|
"Am"A2AB cBA2|"Dm"d2de fdBd|"E#7"e2ef edcB|1 "Am"A4 "E#7"E4:|2 "F"A4 "G7"G4||
|:"C"e2ed c2cA|GGce "Co"a2e2|"Dm"g2gf d2 Bd|"G7"GBdf (3ege d2|
"C"e2ed c2cA|GGce "Co"a2e2|"Dm"g2gf dfdB|1 "G7"cedB "C"c3d:|2 "G7"cedB "C"c4||

